X: 5
T:Shepherds' Aye, CJS (via Shakespeare MM)
M:4/4
L:1/8
Q:120
S:CJS
A:Bidford
P:A2(AB)6A
K:G
P:A
BcdB c2(3cdc|BcdB A2D2|BcdB c2Bc|d2D2 G3A||
P:B
B2G2 c3A    |B2G2 A4  |BcdB c2Bc|d2D2 G3z||
